X:1
T:O Spiegel der Dreyfaltigkeit
T:André Vierendeels
T:Melody by Georg Vogler (1625) (Soprano voice)
T:Source : Catechismus---Würtzburg---J.Volmari---1652. Editor : André Vierendeels (15/10/17).
T:Notes : Original clef : C1, other voices supplied editorially Original note values have been halved Text Middle German 
T:O Spiegel der Dreyfaltigkeit
T:©
T:©
C:André Vierendeels
Z:©
%%score [ 1 2 3 ]
L:1/8
Q:1/4=80
M:2/2
K:F
V:1 treble nm="Soprano" snm="S"
V:2 treble-8 nm="Tenor" snm="T"
V:3 bass nm="Bass" snm="B"
V:1
"^1)" z2 c2 c2 c2 | c2 B2 A2 A2 | G4 F2 F2 | F2 E2 D2 D2 | C4 !fermata!C4 | C2 F2 E2 F2 | %6
w: O Spie- gel|der Drey- fal- tig-|keit, er- leucht|uns al- le in|der Zeit:|E- ya, lie- be|
w: Ma- ri- a|säugt ihr Kind- lein|zarth, von bes-|ser Arth kein Milch|sie spart:|mit höch- stem Gunst,|
 G2 G2 F4 | C2 F2 E2 F2 | G2- G2 G2 F2 | !fermata!F2 F2 c2 c2 | c2 F2 c2- c2 | c4 F4 | F3 G F2 E2 | %13
w: Chri- sten- heit,|mit Lob ge- sän-|gern _ sey be-|reit, mit Frö- lig-|keit, mit In- nig-|keit dem|Kin- de- lein in|
w: und gros- tem|Lust, fällt an ihr|jung- fraw- li- che|Brust, Je- sus ihr|Sohn: O lie- *|be schon|Ma- ri- ae Arm|
 D2 D2 !fermata!C2 F2 | C2 D2 E2 F2 | G8 | F8 |] %17
w: E- wig- keit, last|uns von Hert- zen|sin-|gen.|
w: seyn Gott's Thron, last|uns von Hert- zen|sin-|gen.|
V:2
"^2)""^1)" c4 e2 e2 | c2 d2 f2 f2 | d4 d2 d2 | c2 c2 A2 A2 | G4 !fermata!A4 | G2 A2 c2 d2 | %6
w: O Spie- gel|der Drey- fal- tig-|keit, er- leucht|uns al- le in|der Zeit:|E- ya, lie- be|
w: Al- le e-|del- ste Kö- ni-|gin der Men-|schen und der En-|ge- lein.|du prei- sest Gott|
 d2 e2 c4 | G2 d2 c2 c2 | d2- d2 e2 d2 | !fermata!A2 A2 e2 e2 | c2 d2 e2 f2 | c4 A4 | A3 G B2 c2 | %13
w: Chri- sten- heit,|mit Lob ge- sän-|gern _ sey be-|reit, mit Frö- lig-|keit, mit In- nig-|keit dem|Kin- de- lein in|
w: mit Süs sig-|keit er- zeig uns|auch dein Mild- tig-|keit, Speisz und Thränck|uns hie in der|Zeit, O|Mut- ter der Barm-|
 d2 B2 !fermata!G2 A2 | G2 B2 G2 d2 | f4 e4 | c8 |] %17
w: E- wig- keit, last|uns von Hert- zen|sin- *|gen.|
w: her- zig- keit, last|uns von Hert- zen|sin- *|gen.|
V:3
"^3)""^1)""^4)" C,4 C,2 C,2 | E,2 G,2 D,2 D,2 | G,,4 D,2 B,,2 | F,2 C,2 D,2 F,2 | %4
w: O Spie- gel|der Drey- fal- tig-|keit, er- leucht|uns al- le in|
w: Dein müt- ter-|lich Hertz uns er-|weisz, O Mei-|ste- rin, deö Se-|
 C,4 !fermata!F,4 | C,2 F,2 C,2 B,,2 | G,,2 C,2 F,4 | C,2 B,,2 C,2 F,2 | G,2- G,2 C,2 D,2 | %9
w: der Zeit:|E- ya, lie- be|Chri- sten- heit,|mit Lob ge- sän-|gern _ sey be-|
w: len Speisz,|er- hal- te uns|von dei- nem|Kind, da- mit der|Mensch das Le- ben|
 !fermata!F,2 D,2 C,2 E,2 | F,2 D,2 C,2 F,2 | E,4 F,4 | F,3 C, D,2 C,2 | %13
w: reit, mit Frö- lig-|keit, mit In- nig-|keit dem|Kin- de- lein in|
w: find, wel- ches ge-|grund auff Got- tes|Wort, und|völ- lig ist im|
 B,,2 D,2 !fermata!C,2 F,2 | C,2 B,,2 C,2 D,2 | C,8 | F,8 |] %17
w: E- wig- keit, last|uns von Hert- zen|sin-|gen.|
w: Him- mel dort, last|uns von Hert- zen|sin-|gen.|

